X:0095
T:Where will our Goodman lye.
M:2/4
L:1/16
Q:1/4=84
I: :: ::
Z:Jack Campin * www.campin.me.uk * 2009
K:G
(BA)| G2g2   g2(fe) |d4 B4| A2=f2   (gfed)  |c4   A4 |
      G2g2  (ag)(fe)|d4 B4|(cB)(AG) (FG)(Ac)|B2G2 G2:|
(Bc)|(dcBA) (GABc)  |d4 B4|(cBAG)   (FGAB)  |c4   A4 |
     (dcBA) (GABc)  |d4 g4|(cBAG)    FAdA   |B2G2 G2:|

